svg/filled/snowflake.svg

<svg width="24" height="24" viewBox="0 0 24 24" fill="none" xmlns="http://www.w3.org/2000/svg">
<path fill-rule="evenodd" clip-rule="evenodd" d="M11.9999 3.25C12.4141 3.25 12.7499 3.58579 12.7499 4V7.17493L14.9696 4.95527C15.2625 4.66237 15.7373 4.66237 16.0302 4.95527C16.3231 5.24816 16.3231 5.72303 16.0302 6.01593L12.7499 9.29625V11.25H14.6748L17.9696 7.95527C18.2625 7.66237 18.7373 7.66237 19.0302 7.95527C19.3231 8.24816 19.3231 8.72303 19.0302 9.01593L16.7962 11.25H19.9999C20.4141 11.25 20.7499 11.5858 20.7499 12C20.7499 12.4142 20.4141 12.75 19.9999 12.75H16.825L19.0302 14.9553C19.3231 15.2482 19.3231 15.723 19.0302 16.0159C18.7373 16.3088 18.2625 16.3088 17.9696 16.0159L14.7037 12.75H12.7499V14.6749L16.0302 17.9553C16.3231 18.2482 16.3231 18.723 16.0302 19.0159C15.7373 19.3088 15.2625 19.3088 14.9696 19.0159L12.7499 16.7963V20C12.7499 20.4142 12.4141 20.75 11.9999 20.75C11.5857 20.75 11.2499 20.4142 11.2499 20V16.7963L9.03024 19.0159C8.73734 19.3088 8.26247 19.3088 7.96958 19.0159C7.67668 18.723 7.67668 18.2482 7.96958 17.9553L11.2499 14.6749V12.75H9.29616L6.03024 16.0159C5.73735 16.3088 5.26247 16.3088 4.96958 16.0159C4.67669 15.723 4.67669 15.2482 4.96958 14.9553L7.17484 12.75H3.99991C3.58569 12.75 3.24991 12.4142 3.24991 12C3.24991 11.5858 3.58569 11.25 3.99991 11.25H7.20365L4.96958 9.01593C4.67669 8.72303 4.67669 8.24816 4.96958 7.95527C5.26247 7.66237 5.73735 7.66237 6.03024 7.95527L9.32497 11.25H11.2499V9.29626L7.96958 6.01593C7.67668 5.72303 7.67668 5.24816 7.96958 4.95527C8.26247 4.66237 8.73734 4.66237 9.03024 4.95527L11.2499 7.17494V4C11.2499 3.58579 11.5857 3.25 11.9999 3.25Z" fill="black"/>
</svg>

<svg xmlns="http://www.w3.org/2000/svg" viewBox="0 0 24 24" fill="currentColor">
  <path fill-rule="evenodd" d="M12 3.25a.75.75 0 01.75.75v3.175l2.22-2.22a.75.75 0 111.06 1.06l-3.28 3.281v1.954h1.925l3.295-3.295a.75.75 0 111.06 1.06l-2.234 2.235H20a.75.75 0 010 1.5h-3.175l2.205 2.205a.75.75 0 11-1.06 1.06l-3.266-3.265H12.75v1.925l3.28 3.28a.75.75 0 11-1.06 1.06l-2.22-2.219V20a.75.75 0 01-1.5 0v-3.204l-2.22 2.22a.75.75 0 01-1.06-1.06l3.28-3.281V12.75H9.296L6.03 16.016a.75.75 0 01-1.06-1.06l2.205-2.206H4a.75.75 0 010-1.5h3.204L4.97 9.016a.75.75 0 011.06-1.06l3.295 3.294h1.925V9.296l-3.28-3.28a.75.75 0 111.06-1.06l2.22 2.219V4a.75.75 0 01.75-.75z" clip-rule="evenodd"/>
</svg>
